svgs/sharp-light/user-robot-xmarks.svg

<svg xmlns="http://www.w3.org/2000/svg" viewBox="0 0 448 512"><!--! Font Awesome Pro 6.6.0 by @fontawesome - https://fontawesome.com License - https://fontawesome.com/license (Commercial License) Copyright 2024 Fonticons, Inc. --><path d="M240 16l0-16L208 0l0 16 0 48L96 64 64 64l0 32 0 192 0 32 32 0 256 0 32 0 0-32 0-192 0-32-32 0L240 64l0-48zM96 96l256 0 0 192-48 0 0-48-32 0 0 48-32 0 0-48-32 0 0 48-32 0 0-48-32 0 0 48-48 0L96 96zM32 128L0 128 0 256l32 0 0-128zm416 0l-32 0 0 128 32 0 0-128zM272 480l-32 0 0-32 32 0 0 32zm32-32l32 0 0 32-32 0 0-32zm64 32l0-32 0-32-32 0-48 0-64 0-112 0-32 0 0 32 0 32-37 0 28.8-96 304.4 0L405 480l-37 0zm-224 0l-32 0 0-32 32 0 0 32zm64 0l-32 0 0-32 32 0 0 32zM80 512l32 0 48 0 64 0 64 0 48 0 32 0 46.6 0 33.4 0-9.6-32L400 352 48 352 9.6 480 0 512l33.4 0L80 512zm48-402.7L109.3 128l9.3 9.3L141.3 160l-22.7 22.7-9.3 9.3L128 210.7l9.3-9.3L160 178.7l22.7 22.7 9.3 9.3L210.7 192l-9.3-9.3L178.7 160l22.7-22.7 9.3-9.3L192 109.3l-9.3 9.3L160 141.3l-22.7-22.7-9.3-9.3zm137.3 9.3l-9.3-9.3L237.3 128l9.3 9.3L269.3 160l-22.7 22.7-9.3 9.3L256 210.7l9.3-9.3L288 178.7l22.7 22.7 9.3 9.3L338.7 192l-9.3-9.3L306.7 160l22.7-22.7 9.3-9.3L320 109.3l-9.3 9.3L288 141.3l-22.7-22.7z"/></svg>

<svg xmlns="http://www.w3.org/2000/svg" viewBox="0 0 448 512"><!--! Font Awesome Pro 6.4.0 by @fontawesome - https://fontawesome.com License - https://fontawesome.com/license (Commercial License) Copyright 2023 Fonticons, Inc. --><path d="M240 16V0H208V16 64H96 64V96 288v32H96 352h32V288 96 64H352 240V16zM96 96H352V288H304V240H272v48H240V240H208v48H176V240H144v48H96V96zM32 128H0V256H32V128zm416 0H416V256h32V128zM272 480H240V448h32v32zm32-32h32v32H304V448zm64 32V448 416H336 288 224 112 80v32 32H43l28.8-96H376.2L405 480H368zm-224 0H112V448h32v32zm64 0H176V448h32v32zM80 512h32 48 64 64 48 32 46.6H448l-9.6-32L400 352H48L9.6 480 0 512H33.4 80zm48-402.7L109.3 128l9.3 9.3L141.3 160l-22.7 22.7-9.3 9.3L128 210.7l9.3-9.3L160 178.7l22.7 22.7 9.3 9.3L210.7 192l-9.3-9.3L178.7 160l22.7-22.7 9.3-9.3L192 109.3l-9.3 9.3L160 141.3l-22.7-22.7-9.3-9.3zm137.3 9.3l-9.3-9.3L237.3 128l9.3 9.3L269.3 160l-22.7 22.7-9.3 9.3L256 210.7l9.3-9.3L288 178.7l22.7 22.7 9.3 9.3L338.7 192l-9.3-9.3L306.7 160l22.7-22.7 9.3-9.3L320 109.3l-9.3 9.3L288 141.3l-22.7-22.7z"/></svg>
